company/mouse/normal.svg

<svg width="2048" height="2048" fill="none" xmlns="http://www.w3.org/2000/svg"><g clip-path="url(#a)"><g filter="url(#b)"><path d="M655.143 112.925c43.123 36.907 68.558 66.314 87.629 132.919 43.082 150.464.033 145.689 138.198 384.867 110.532 191.343 141.37 232.574 142.98 229.271" stroke="#000" stroke-width="34.305" stroke-linecap="round" stroke-linejoin="bevel"/></g><path d="m742.984 228.529-161.379 58.116c-178.254 64.192-270.72 260.734-206.527 438.988l319.633 887.587c96.288 267.38 391.099 406.08 658.479 309.79L742.984 228.529Z" fill="#C4C4C4"/><path d="M1343.35 376.944c-64.19-178.255-260.73-270.72-438.985-206.528l-161.379 58.115L1353.2 1923.01c267.38-96.29 406.08-391.1 309.79-658.48l-319.64-887.586Z" fill="#8D8D8D"/><g filter="url(#c)"><rect width="198.968" height="497.42" rx="25.729" transform="scale(-1 1) rotate(19.805 -1737.781 -2431.641)" fill="#424242"/></g></g><defs><filter id="b" x="552.228" y="10.011" width="574.636" height="953.065" filterUnits="userSpaceOnUse" color-interpolation-filters="sRGB"><feFlood flood-opacity="0" result="BackgroundImageFix"/><feColorMatrix in="SourceAlpha" values="0 0 0 0 0 0 0 0 0 0 0 0 0 0 0 0 0 0 127 0" result="hardAlpha"/><feOffset/><feGaussianBlur stdDeviation="42.881"/><feColorMatrix values="0 0 0 0 1 0 0 0 0 1 0 0 0 0 1 0 0 0 1 0"/><feBlend in2="BackgroundImageFix" result="effect1_dropShadow_2596:8161"/><feBlend in="SourceGraphic" in2="effect1_dropShadow_2596:8161" result="shape"/></filter><filter id="c" x="746.652" y="452.152" width="348.218" height="534.757" filterUnits="userSpaceOnUse" color-interpolation-filters="sRGB"><feFlood flood-opacity="0" result="BackgroundImageFix"/><feBlend in="SourceGraphic" in2="BackgroundImageFix" result="shape"/><feColorMatrix in="SourceAlpha" values="0 0 0 0 0 0 0 0 0 0 0 0 0 0 0 0 0 0 127 0" result="hardAlpha"/><feOffset dx="6.861" dy="13.722"/><feGaussianBlur stdDeviation="13.722"/><feComposite in2="hardAlpha" operator="arithmetic" k2="-1" k3="1"/><feColorMatrix values="0 0 0 0 0.816667 0 0 0 0 0.816667 0 0 0 0 0.816667 0 0 0 0.2 0"/><feBlend in2="shape" result="effect1_innerShadow_2596:8161"/></filter><clipPath id="a"><path fill="#fff" d="M0 0h2048v2048H0z"/></clipPath></defs></svg>

<svg width="2048" height="2048" viewBox="0 0 2048 2048" fill="none" xmlns="http://www.w3.org/2000/svg">
<g clip-path="url(#clip0_4746_7827)">
<path d="M742.984 228.53L581.605 286.645C403.351 350.838 310.885 547.379 375.078 725.634L694.711 1613.22C790.999 1880.6 1085.81 2019.3 1353.19 1923.01L742.984 228.53Z" fill="#C4C4C4"/>
<path d="M1343.35 376.943C1279.16 198.689 1082.62 106.223 904.365 170.415L742.986 228.531L1353.2 1923.01C1620.58 1826.72 1759.28 1531.91 1662.99 1264.53L1343.35 376.943Z" fill="#8D8D8D"/>
<rect width="198.968" height="497.42" rx="25.7286" transform="matrix(-0.940853 0.338816 0.338816 0.940853 926.664 444.962)" fill="#424242"/>
</g>
<defs>
<clipPath id="clip0_4746_7827">
<rect width="2048" height="2048" fill="white"/>
</clipPath>
</defs>
</svg>
